packages/IcoMoon/src/HistoryIcon/index.svg

<svg version="1.1" xmlns="http://www.w3.org/2000/svg" width="17" height="16" viewBox="0 0 17 16">
<path d="M10 1c3.866 0 7 3.134 7 7s-3.134 7-7 7v-1.5c1.469 0 2.85-0.572 3.889-1.611s1.611-2.42 1.611-3.889c0-1.469-0.572-2.85-1.611-3.889s-2.42-1.611-3.889-1.611c-1.469 0-2.85 0.572-3.889 1.611-0.799 0.799-1.322 1.801-1.52 2.889h2.909l-3.5 4-3.5-4h2.571c0.485-3.392 3.402-6 6.929-6zM13 7v2h-4v-5h2v3z"></path>
</svg>

<svg xmlns="http://www.w3.org/2000/svg" viewBox="0 0 17 16">
  <path d="M10 1a7 7 0 110 14v-1.5c1.469 0 2.85-.572 3.889-1.611S15.5 9.469 15.5 8c0-1.469-.572-2.85-1.611-3.889S11.469 2.5 10 2.5c-1.469 0-2.85.572-3.889 1.611A5.455 5.455 0 004.591 7H7.5L4 11 .5 7h2.571A7.001 7.001 0 0110 1zm3 6v2H9V4h2v3z"/>
</svg>
